src/public/img/about/twitter-icon.svg

<svg width="24" height="24" viewBox="0 0 24 24" fill="none" xmlns="http://www.w3.org/2000/svg">
<path d="M21.5999 6.5048C20.8938 6.79352 20.1353 6.9886 19.3379 7.07677C20.1514 6.62731 20.7754 5.9141 21.0697 5.06511C20.3087 5.4818 19.4656 5.78457 18.5685 5.94687C17.8497 5.24147 16.8265 4.7998 15.6934 4.7998C13.5186 4.7998 11.7547 6.42755 11.7547 8.43609C11.7547 8.72013 11.7902 8.99636 11.8562 9.26323C8.58118 9.11107 5.67995 7.66357 3.73678 5.46464C3.39855 6.00306 3.20406 6.62731 3.20406 7.29214C3.20406 8.55314 3.89998 9.66665 4.95613 10.3182C4.31009 10.2987 3.70296 10.1356 3.17193 9.86329V9.91011C3.17193 11.6713 4.5291 13.1406 6.3319 13.4746C6.00043 13.5573 5.65289 13.601 5.29436 13.601C5.04068 13.601 4.79293 13.5792 4.55278 13.537C5.05421 14.9806 6.50863 16.0325 8.23279 16.0606C6.88407 17.036 5.18528 17.6173 3.3402 17.6173C3.02226 17.6173 2.70854 17.6002 2.3999 17.5666C4.14351 18.599 6.21352 19.1998 8.43743 19.1998C15.6841 19.1998 19.6457 13.6611 19.6457 8.85746C19.6457 8.7014 19.6415 8.54377 19.6339 8.38771C20.4034 7.87426 21.0714 7.23518 21.5982 6.50714L21.5999 6.5048Z" fill="#1DA1F2"/>
</svg>

<svg xmlns="http://www.w3.org/2000/svg" width="24" height="24" fill="none">
  <path fill="#1DA1F2" d="M21.6 6.505a8.409 8.409 0 0 1-2.262.572c.813-.45 1.437-1.163 1.732-2.012a8.274 8.274 0 0 1-2.502.882A4.098 4.098 0 0 0 15.694 4.8c-2.174 0-3.938 1.628-3.938 3.636 0 .284.035.56.101.827-3.275-.152-6.176-1.6-8.12-3.798a3.421 3.421 0 0 0-.532 1.827c0 1.261.696 2.375 1.752 3.026a4.183 4.183 0 0 1-1.784-.455v.047c0 1.761 1.357 3.23 3.16 3.565a4.281 4.281 0 0 1-1.78.062c.502 1.444 1.957 2.495 3.68 2.524a8.333 8.333 0 0 1-4.892 1.556c-.318 0-.631-.017-.94-.05A11.826 11.826 0 0 0 8.437 19.2c7.247 0 11.209-5.539 11.209-10.343 0-.156-.005-.313-.012-.47a7.695 7.695 0 0 0 1.964-1.88l.002-.002Z"/>
</svg>
